i/icons/webicon-dribbble.svg

<svg xmlns="http://www.w3.org/2000/svg" viewBox="0 0 48 48"><linearGradient id="a" gradientUnits="userSpaceOnUse" x1="24" x2="24" y2="48.001"><stop offset="0" stop-color="#ff8bd1"/><stop offset="1" stop-color="#ff4ead"/></linearGradient><path fill-rule="evenodd" clip-rule="evenodd" fill="url(#a)" d="M48 42a6 6 0 0 1-6 6H6a6 6 0 0 1-6-6V6a6 6 0 0 1 6-6h36a6 6 0 0 1 6 6v36z"/><path fill-rule="evenodd" clip-rule="evenodd" fill="#EA3FA1" d="M37.613 25.271s-13.398-2.018-20.257 7.612l-3.101-2.328s8.732-12.556 24.032-7.99l-.674 2.706zm-24.95-8.167s14.905 1.668 18.913-6.117l3.102 2.326s-6.262 10.213-22.688 6.498l.673-2.707z"/><path fill-rule="evenodd" clip-rule="evenodd" fill="#EA3FA1" d="M19.801 9.466s8.527 14.12 9.887 24.583l2.97-2.166s-.871-10.627-9.633-23.519l-3.224 1.102z"/><path fill="#EA3FA1" d="M24.579 37.248c-8.436 0-15.3-6.862-15.3-15.299 0-8.436 6.864-15.3 15.3-15.3 8.437 0 15.3 6.864 15.3 15.3 0 8.437-6.863 15.299-15.3 15.299zm0-27.013c-6.459 0-11.714 5.255-11.714 11.714s5.254 11.713 11.714 11.713 11.714-5.254 11.714-11.713-5.255-11.714-11.714-11.714z"/><path fill-rule="evenodd" clip-rule="evenodd" fill="#FFF" d="M37.613 27.271s-13.398-2.018-20.257 7.612l-3.101-2.328s8.732-12.556 24.032-7.99l-.674 2.706zm-24.95-8.167s14.905 1.668 18.913-6.117l3.102 2.326s-6.262 10.213-22.688 6.498l.673-2.707z"/><path fill-rule="evenodd" clip-rule="evenodd" fill="#FFF" d="M19.801 11.466s8.527 14.12 9.887 24.583l2.97-2.166s-.871-10.627-9.633-23.519l-3.224 1.102z"/><path fill="#FFF" d="M24.579 39.248c-8.436 0-15.3-6.862-15.3-15.299 0-8.436 6.864-15.3 15.3-15.3 8.437 0 15.3 6.864 15.3 15.3 0 8.437-6.863 15.299-15.3 15.299zm0-27.013c-6.459 0-11.714 5.255-11.714 11.714s5.254 11.713 11.714 11.713 11.714-5.254 11.714-11.713-5.255-11.714-11.714-11.714z"/></svg>

<?xml version="1.0" encoding="utf-8"?>
<!DOCTYPE svg PUBLIC "-//W3C//DTD SVG 1.1//EN" "http://www.w3.org/Graphics/SVG/1.1/DTD/svg11.dtd">
<svg version="1.1" id="Icon" xmlns="http://www.w3.org/2000/svg" xmlns:xlink="http://www.w3.org/1999/xlink" x="0px" y="0px" viewBox="0 0 48 48" enable-background="new 0 0 48 48" xml:space="preserve">
<linearGradient id="SVGID_1_" gradientUnits="userSpaceOnUse" x1="23.9995" y1="0" x2="23.9995" y2="48.0005">
	<stop  offset="0" style="stop-color:#FF8BD1"/>
	<stop  offset="1" style="stop-color:#FF4EAD"/>
</linearGradient>
<path fill-rule="evenodd" clip-rule="evenodd" fill="url(#SVGID_1_)" d="M48,42c0,3.313-2.687,6-6,6H6c-3.313,0-6-2.687-6-6V6
	c0-3.313,2.687-6,6-6h36c3.313,0,6,2.687,6,6V42z"/>
<path fill-rule="evenodd" clip-rule="evenodd" fill="#EA3FA1" d="M37.613,25.271c0,0-13.398-2.018-20.257,7.612l-3.101-2.328
	c0,0,8.732-12.556,24.032-7.99L37.613,25.271z"/>
<path fill-rule="evenodd" clip-rule="evenodd" fill="#EA3FA1" d="M12.663,17.104c0,0,14.905,1.668,18.913-6.117l3.102,2.326
	c0,0-6.262,10.213-22.688,6.498L12.663,17.104z"/>
<path fill-rule="evenodd" clip-rule="evenodd" fill="#EA3FA1" d="M19.801,9.466c0,0,8.527,14.12,9.887,24.583l2.97-2.166
	c0,0-0.871-10.627-9.633-23.519L19.801,9.466z"/>
<path fill="#EA3FA1" d="M24.579,37.248c-8.436,0-15.3-6.862-15.3-15.299c0-8.436,6.864-15.3,15.3-15.3c8.437,0,15.3,6.864,15.3,15.3
	C39.879,30.386,33.016,37.248,24.579,37.248z M24.579,10.235c-6.459,0-11.714,5.255-11.714,11.714s5.254,11.713,11.714,11.713
	s11.714-5.254,11.714-11.713S31.038,10.235,24.579,10.235z"/>
<path fill-rule="evenodd" clip-rule="evenodd" fill="#FFFFFF" d="M37.613,27.271c0,0-13.398-2.018-20.257,7.612l-3.101-2.328
	c0,0,8.732-12.556,24.032-7.99L37.613,27.271z"/>
<path fill-rule="evenodd" clip-rule="evenodd" fill="#FFFFFF" d="M12.663,19.104c0,0,14.905,1.668,18.913-6.117l3.102,2.326
	c0,0-6.262,10.213-22.688,6.498L12.663,19.104z"/>
<path fill-rule="evenodd" clip-rule="evenodd" fill="#FFFFFF" d="M19.801,11.466c0,0,8.527,14.12,9.887,24.583l2.97-2.166
	c0,0-0.871-10.627-9.633-23.519L19.801,11.466z"/>
<path fill="#FFFFFF" d="M24.579,39.248c-8.436,0-15.3-6.862-15.3-15.299c0-8.436,6.864-15.3,15.3-15.3c8.437,0,15.3,6.864,15.3,15.3
	C39.879,32.386,33.016,39.248,24.579,39.248z M24.579,12.235c-6.459,0-11.714,5.255-11.714,11.714s5.254,11.713,11.714,11.713
	s11.714-5.254,11.714-11.713S31.038,12.235,24.579,12.235z"/>
</svg>
